src/assets/duotone/Backward10Seconds.svg

<?xml version="1.0" encoding="UTF-8"?>
<svg width="24" height="24" viewBox="0 0 24 24" xmlns="http://www.w3.org/2000/svg">
 <path d="m9.54 16.67c-0.41 0-0.75-0.34-0.75-0.75v-3.39l-0.19001 0.21c-0.28 0.31-0.74999 0.33-1.06 0.06-0.31-0.28-0.33-0.75-0.06-1.06l1.5-1.67c0.21-0.23002 0.53999-0.31003 0.82999-0.20003 0.28997 0.11 0.47997 0.39003 0.47997 0.70003v5.35c0 0.42-0.32996 0.75-0.74996 0.75z"/>
 <path d="m12 3.48c-0.08 0-0.16 0.01001-0.24 0.01001l0.82-1.02c0.26-0.32 0.21-0.79999-0.12-1.05-0.32-0.26-0.79-0.21-1.05 0.12l-1.98 2.47c-0.01 0.01-0.00998 0.02998-0.01998 0.03998-0.03 0.04-0.05001 0.09001-0.07001 0.14001-0.02 0.04-0.03999 0.08001-0.04999 0.13001s-0.01001 0.09001-0.01001 0.14001v0.14997 0.04998c0.01 0.03 0.03001 0.06003 0.04001 0.09003 0.02 0.05 0.03 0.09001 0.06 0.13001s0.06 0.07999 0.1 0.11999c0.02 0.02 0.03 0.05001 0.06 0.07001 0.01 0.01 0.02998 0.01002 0.03998 0.02002 0.03 0.02 0.06 0.03999 0.1 0.04999 0.05 0.03 0.1 0.04999 0.15 0.05999 0.03 0.01 0.07 0.00996 0.1 0.01996 0.03 0 0.05002 0.01001 0.08002 0.01001 0.02 0 0.05-0.00996 0.07-0.01996h0.1c0.64-0.15 1.24-0.22003 1.81-0.22003 4.49 0 8.14 3.65 8.14 8.14 0 4.49-3.65 8.14-8.14 8.14-4.49 0-8.14-3.65-8.14-8.14 0-1.74 0.56999-3.42 1.65-4.86 0.25-0.33 0.18001-0.80005-0.14999-1.05s-0.80002-0.17997-1.05 0.15003c-1.28 1.7-1.95 3.69-1.95 5.76 0 5.31 4.32 9.64 9.64 9.64 5.32 0 9.64-4.32 9.64-9.64s-4.32-9.65-9.63-9.65z" opacity=".4"/>
 <path d="m14 16.67c-1.52 0-2.75-1.23-2.75-2.75v-1.3499c0-1.52 1.23-2.75 2.75-2.75s2.75 1.23 2.75 2.75v1.3499c0 1.52-1.23 2.75-2.75 2.75zm0-5.3399c-0.69 0-1.25 0.56-1.25 1.25v1.35c0 0.69 0.56 1.25 1.25 1.25s1.25-0.56 1.25-1.25v-1.35c0-0.69-0.56-1.25-1.25-1.25z"/>
</svg>

<svg width="24" height="24" viewBox="0 0 24 24"  xmlns="http://www.w3.org/2000/svg">
<path d="M9.54004 16.6701C9.13004 16.6701 8.79004 16.3301 8.79004 15.9201V12.5301L8.60003 12.7401C8.32003 13.0501 7.85004 13.0701 7.54004 12.8001C7.23004 12.5201 7.21004 12.0501 7.48004 11.7401L8.98004 10.0701C9.19004 9.84008 9.52003 9.76007 9.81003 9.87007C10.1 9.98007 10.29 10.2601 10.29 10.5701V15.9201C10.29 16.3401 9.96004 16.6701 9.54004 16.6701Z" />
<path opacity="0.4" d="M12.0001 3.47998C11.9201 3.47998 11.8401 3.48999 11.7601 3.48999L12.5801 2.46997C12.8401 2.14997 12.7901 1.66998 12.4601 1.41998C12.1401 1.15998 11.6701 1.20998 11.4101 1.53998L9.43008 4.01001C9.42008 4.02001 9.4201 4.03999 9.4101 4.04999C9.3801 4.08999 9.36009 4.14 9.34009 4.19C9.32009 4.23 9.3001 4.27001 9.2901 4.32001C9.2801 4.37001 9.28009 4.41002 9.28009 4.46002C9.28009 4.51002 9.28009 4.55999 9.28009 4.60999C9.28009 4.62999 9.28009 4.63997 9.28009 4.65997C9.29009 4.68997 9.3101 4.72 9.3201 4.75C9.3401 4.8 9.3501 4.84001 9.3801 4.88001C9.4101 4.92001 9.4401 4.96 9.4801 5C9.5001 5.02 9.5101 5.05001 9.5401 5.07001C9.5501 5.08001 9.57008 5.08003 9.58008 5.09003C9.61008 5.11003 9.64008 5.13002 9.68008 5.14002C9.73008 5.17002 9.78008 5.19001 9.83008 5.20001C9.86008 5.21001 9.90008 5.20997 9.93008 5.21997C9.96008 5.21997 9.9801 5.22998 10.0101 5.22998C10.0301 5.22998 10.0601 5.22002 10.0801 5.21002C10.1101 5.21002 10.1401 5.21002 10.1801 5.21002C10.8201 5.06002 11.4201 4.98999 11.9901 4.98999C16.4801 4.98999 20.1301 8.64001 20.1301 13.13C20.1301 17.62 16.4801 21.27 11.9901 21.27C7.50008 21.27 3.8501 17.62 3.8501 13.13C3.8501 11.39 4.42009 9.71002 5.50009 8.27002C5.75009 7.94002 5.6801 7.46997 5.3501 7.21997C5.0201 6.96997 4.55008 7.04 4.30008 7.37C3.02008 9.07 2.3501 11.06 2.3501 13.13C2.3501 18.44 6.67008 22.77 11.9901 22.77C17.3101 22.77 21.6301 18.45 21.6301 13.13C21.6301 7.81 17.3101 3.47998 12.0001 3.47998Z" />
<path d="M14 16.67C12.48 16.67 11.25 15.44 11.25 13.92V12.5701C11.25 11.0501 12.48 9.82007 14 9.82007C15.52 9.82007 16.75 11.0501 16.75 12.5701V13.92C16.75 15.44 15.52 16.67 14 16.67ZM14 11.3301C13.31 11.3301 12.75 11.8901 12.75 12.5801V13.9301C12.75 14.6201 13.31 15.1801 14 15.1801C14.69 15.1801 15.25 14.6201 15.25 13.9301V12.5801C15.25 11.8901 14.69 11.3301 14 11.3301Z" />
</svg>
